!!!OTL: Die Rabenmutter Es treibt ein Hirt seine Schaf' in' Wald
!!!ARE: Europa, Osteuropa, UdSSR, Ukraine
!!!YOR: 5, S. 270
!!    ????
!!!SCT: Q0114T
!!!YEM: Copyright 1995, estate of Helmut Schaffrath.
**kern
*ICvox
*Ivox
*M3/4
*k[f#]
*G:
{8dd
8dd
8b
=1
4.ee
16dd
16dd
12cc
12b
12a
=2
4g
8r}
{8dd
8dd
8b
=3
4.ee
16dd
16dd
12cc
12b
12a
=4
4g
8r}
{8dd
16dd
16ee
16ff#
16gg
=5
4aa
8gg
8ff#
8ee
8ff#
=6
4.gg}
{8b
8a
8b
=7
4.ee
8dd
12cc
12b
12a
=8
4g
8r}
==
!!!AGN: Ballade, Kinds - Mord, Strafe
!!!ONB: ESAC (Essen Associative Code) Database: BALLADE
!!!AMT: simple triple
!!!AIN: vox
!!!EED: Helmut Schaffrath
!!!EEV: 1.0
*-
